X:4005
T:12 Coates Crescent
P:The Glendale Strathspey
C:Roddy Matthews
R:Strathspey (4x32)
B:RSCDS 40-5
Z:Anselm Lingnau <anselm@strathspey.org>
M:4/4
L:1/8
K:G
G|"G"G>A B>A G2 D>G|"C"E<C C>G "G"D<B, B,>D|\
  "G"G>A "B7/D#"B>A "Em"G2 "G/B"d>B|"D"A<D F>A "D7/F#"c2 B>A|
  "G"G>A B>A G2 D>G|"C"E<C C>G "G"D<B, B,>D|\
  "G"(3GAB "D7/F#"(3ABc "Em"(3Bcd "C"d>c|"G/D"B>G "D7"F<A "G"G2-G||
d|"G"g>f e>d "C"(3efg "D7"d>c|"G"B>c d>c B<G G2|\
  "D"a>g f>e (3fga a>g|"D/A"f>d "A7"e<^c "D7"d2 (3def|
  "G"g>f e>d "C"(3efg "D7"d>c|"G"B>c d>c B<G G>F|\
  "Am/C"(3EAc (3ecA "G"(3DGB (3dBG|"D7"A<D F>A "G"G2-G|]
